X: 35476
T: Roy's Hands
R: waltz
M: 3/4
K: Dmajor
V:1
|:A2 G2 E2|F6|F6|F6|A2 G2 F2|G6|G6|G6|
V:2
|:d2 B2 A2|A6|A6|A6|d2 B2 A2|B6|B6|B6|
V:1
A2 G2 E2|F6|F6|F4 F(E|E)<A D4|D6|D6|D6:|
V:2
d2 B2 A2|A6|A6|A4 AG|F<A F4|F6|F6|F6:|
V:1
|:f2 e2 f2|a6|a6|a6|f2 e2 f2|b6|b6|b6|
V:2
|:d2 c2 d2|f6|f6|f6|d2 c2 d2|g6|g6|g6|
V:1
f2 e2 f2|a6|a6|a4 af|e<f d4|d6|d6|d6:|
V:2
d2 c2 d2|f6|f6|f4 fe|e<a f4|f6|f6|f6:|

